X: 15
T:Clee Hill
S: Silurian Morris / barn dance
D: Barn Dance: The Ceilidh Band
Z: Bill Johnston
M: 4/4
L: 1/8
Q: 1/4 = 100
R: march
K: DMaj
|: A/G/ |\
F3 G A3 B | AdcB B2 A2 | E3 F G3 G | GcBA F2 | 
F3 G A3 B | AdcB B2 A2 | E3 F G3 A | BABc d3 :|
|: e |\
fAfA f3 A | ABcd c2 B2 | gBgB g3 B | Bcde d2 c2 |
fAfA f3 A | ABcd c2 B2 | Bcdc/B/ Adf>g | feBc d2 d :|
